src/components/00-materials/images-raw/Employee.svg

<svg width="96" height="96" viewBox="0 0 96 96" fill="none" xmlns="http://www.w3.org/2000/svg">
<path d="M45.79 31C42.9 31 40.12 28.7 39 26C37.19 29.91 35 33 29.5 33H24V41C24 47.64 28 53 35 53C42 53 46 47.61 46 41V31H45.79Z" stroke="#00008F" stroke-width="2" stroke-linecap="round" stroke-linejoin="round"/>
<path d="M46 42.0699C47.5933 40.9445 48.8835 39.4426 49.7559 37.6979C50.6282 35.9531 51.0556 34.0198 51 32.0699V25.9999C51 24.939 50.5786 23.9216 49.8284 23.1715C49.0783 22.4213 48.0609 21.9999 47 21.9999C45.7112 19.8323 43.8729 18.0434 41.671 16.8143C39.469 15.5851 36.9815 14.9592 34.46 14.9999H33.27C31.3934 15.0025 29.5357 15.3748 27.803 16.0953C26.0702 16.8159 24.4964 17.8707 23.1713 19.1995C21.8462 20.5283 20.7958 22.1051 20.0801 23.8398C19.3644 25.5746 18.9974 27.4333 19 29.3099V31.7699C19 35.6399 21 40.0599 24 42.0699M28 50.6899V56.0999M42 50.6899V56.0999M27.73 56.1799L19.31 57.4299C16.2088 57.8363 13.358 59.3471 11.2806 61.6854C9.20319 64.0236 8.03845 67.0324 8 70.1599V74.8499C8.00239 75.7998 8.34278 76.7179 8.96024 77.4398C9.5777 78.1617 10.4319 78.6403 11.37 78.7899L22.44 80.7899C30.7416 82.34 39.2584 82.34 47.56 80.7899L58.63 78.7899C59.5681 78.6403 60.4223 78.1617 61.0398 77.4398C61.6572 76.7179 61.9976 75.7998 62 74.8499V70.1599C61.9616 67.0324 60.7968 64.0236 58.7194 61.6854C56.642 59.3471 53.7912 57.8363 50.69 57.4299L42.27 56.1799" stroke="#00008F" stroke-width="2" stroke-linecap="round" stroke-linejoin="round"/>
<path d="M42 56.1L35 62L43 67.13L45.11 56.6L42 56.1ZM24.89 56.6L27 67.13L35 62L28 56.1L24.89 56.6ZM19 75V80.17V75ZM51 75V80.17V75ZM35 62V82V62ZM76 36C74.9652 36.0397 73.9413 35.7771 73.0534 35.2444C72.1654 34.7116 71.4519 33.9317 71 33C69.66 35.75 68.07 38 64 38H60V44C60 48.67 62.81 53 68 53C73.19 53 76 48.67 76 44V36Z" stroke="#00008F" stroke-width="2" stroke-linecap="round" stroke-linejoin="round"/>
<path d="M76 46C76 46 81 44 81 37V35C81 32 81 28 77 28C75.13 24.88 73 23 68 23H67C63.8303 23.0414 60.802 24.319 58.5605 26.5605C56.319 28.8021 55.0414 31.8303 55 35V37C55 44 60 46 60 46M74.01 50.27V55M62.01 50.18V55L68 61L74 55L79.61 55.61C84.44 56.3 88 60.12 88 64.61V67.93C87.9766 68.6144 87.7134 69.2688 87.2564 69.7787C86.7994 70.2887 86.1777 70.6219 85.5 70.72L77.3 72.17C72.406 73.0413 67.4137 73.2197 62.47 72.7M62 55L56.38 55.61C54.6456 55.8597 53.0038 56.5481 51.61 57.61M80.01 67V71.7" stroke="#00008F" stroke-width="2" stroke-linecap="round" stroke-linejoin="round"/>
</svg>

<svg width="96" height="96" viewBox="0 0 96 96" fill="none" xmlns="http://www.w3.org/2000/svg"><path d="M45.79 31c-2.89 0-5.67-2.3-6.79-5-1.81 3.91-4 7-9.5 7H24v8c0 6.64 4 12 11 12s11-5.39 11-12V31h-.21z" stroke="#00008F" stroke-width="2" stroke-linecap="round" stroke-linejoin="round"/><path d="M46 42.07a11.83 11.83 0 005-10V26a4 4 0 00-4-4 14.32 14.32 0 00-12.54-7h-1.19A14.29 14.29 0 0019 29.31v2.46c0 3.87 2 8.29 5 10.3m4 8.62v5.41m14-5.41v5.41m-14.27.08l-8.42 1.25A13 13 0 008 70.16v4.69a4 4 0 003.37 3.94l11.07 2a68.428 68.428 0 0025.12 0l11.07-2A4 4 0 0062 74.85v-4.69a13 13 0 00-11.31-12.73l-8.42-1.25" stroke="#00008F" stroke-width="2" stroke-linecap="round" stroke-linejoin="round"/><path d="M42 56.1L35 62l8 5.13 2.11-10.53-3.11-.5zm-17.11.5L27 67.13 35 62l-7-5.9-3.11.5zM19 75v5.17V75zm32 0v5.17V75zM35 62v20-20zm41-26a5.33 5.33 0 01-5-3c-1.34 2.75-2.93 5-7 5h-4v6c0 4.67 2.81 9 8 9 5.19 0 8-4.33 8-9v-8z" stroke="#00008F" stroke-width="2" stroke-linecap="round" stroke-linejoin="round"/><path d="M76 46s5-2 5-9v-2c0-3 0-7-4-7-1.87-3.12-4-5-9-5h-1a12.16 12.16 0 00-12 12v2c0 7 5 9 5 9m14.01 4.27V55m-12-4.82V55L68 61l6-6 5.61.61c4.83.69 8.39 4.51 8.39 9v3.32a2.92 2.92 0 01-2.5 2.79l-8.2 1.45a52.997 52.997 0 01-14.83.53M62 55l-5.62.61a10.29 10.29 0 00-4.77 2M80.01 67v4.7" stroke="#00008F" stroke-width="2" stroke-linecap="round" stroke-linejoin="round"/></svg>
